X:18469
T:Waltz. CJF.121
M:3/8
L:1/8
Q:35
S: C.J.Fox MS, 1829/33, Beverley,E.Yorks.
R:Waltz
O:England
A:East Yorkshire
B:Kidson Coll.Mitchell Lib.M1805
N:Asterisked notes were G3 in MS. - PJH.
Z:P J Headford 2000
K:G
B/c/|dd/e/d|bag|gfe|d2B|GG/A/G|AA/B/A|BcB|A2B/c/|!\
dd/e/d|bag|gfe|d2B|
GG/A/G|Aed|{d/}cBA|"*"G2:||:!F/G/|AA/B/A|dd/e/d|\
ede|f2d|g2b|ad'f|{a/}gfe|dc/B/c|!dd/e/d|
bag|gfe|d2B|GG/A/G|Aed|{d/}cBA|"*"G2:||


